src/assets/Apartment-Rental-Icon.svg

<svg width="40" height="40" viewBox="0 0 40 40" fill="none" xmlns="http://www.w3.org/2000/svg">
<g clip-path="url(#clip0_205_76516)">
<mask id="mask0_205_76516" style="mask-type:luminance" maskUnits="userSpaceOnUse" x="0" y="0" width="40" height="40">
<path d="M39 39V1H1V39H39Z" fill="white" stroke="white" stroke-width="2"/>
</mask>
<g mask="url(#mask0_205_76516)">
<path d="M1.15747 38.8281H38.8136" stroke="#020A0A" stroke-width="2" stroke-miterlimit="10" stroke-linecap="round"/>
<path d="M22.3332 1.17199H2.802V38.8281H22.3332V1.17199Z" stroke="#020A0A" stroke-width="2" stroke-miterlimit="10" stroke-linecap="round"/>
<path d="M1.15747 1.172H23.9571" stroke="#020A0A" stroke-width="2" stroke-miterlimit="10" stroke-linecap="round"/>
</g>
<path d="M12.5676 5.92089V7.89221" stroke="#020A0A" stroke-width="2" stroke-miterlimit="10" stroke-linecap="round"/>
<path d="M7.72388 5.92089V7.89221" stroke="#020A0A" stroke-width="2" stroke-miterlimit="10" stroke-linecap="round"/>
<path d="M17.4114 5.92089V7.89221" stroke="#020A0A" stroke-width="2" stroke-miterlimit="10" stroke-linecap="round"/>
<path d="M12.5573 12.5988V14.5701" stroke="#020A0A" stroke-width="2" stroke-miterlimit="10" stroke-linecap="round"/>
<path d="M7.7135 12.5988V14.5701" stroke="#020A0A" stroke-width="2" stroke-miterlimit="10" stroke-linecap="round"/>
<path d="M17.401 12.5988V14.5701" stroke="#020A0A" stroke-width="2" stroke-miterlimit="10" stroke-linecap="round"/>
<path d="M12.5573 19.2297V21.201" stroke="#020A0A" stroke-width="2" stroke-miterlimit="10" stroke-linecap="round"/>
<path d="M7.7135 19.2297V21.201" stroke="#020A0A" stroke-width="2" stroke-miterlimit="10" stroke-linecap="round"/>
<path d="M17.401 19.2297V21.201" stroke="#020A0A" stroke-width="2" stroke-miterlimit="10" stroke-linecap="round"/>
<path d="M12.5469 25.9076V27.8789" stroke="#020A0A" stroke-width="2" stroke-miterlimit="10" stroke-linecap="round"/>
<path d="M7.70312 25.9076V27.8789" stroke="#020A0A" stroke-width="2" stroke-miterlimit="10" stroke-linecap="round"/>
<path d="M17.3906 25.9076V27.8789" stroke="#020A0A" stroke-width="2" stroke-miterlimit="10" stroke-linecap="round"/>
<mask id="mask1_205_76516" style="mask-type:luminance" maskUnits="userSpaceOnUse" x="0" y="0" width="40" height="40">
<path d="M39 39V1H1V39H39Z" fill="white" stroke="white" stroke-width="2"/>
</mask>
<g mask="url(#mask1_205_76516)">
<path d="M37.2662 14.5703H22.3331V38.8281H37.2662V14.5703Z" stroke="#020A0A" stroke-width="2" stroke-miterlimit="10" stroke-linecap="round"/>
<path d="M22.3331 14.5163H38.8135" stroke="#020A0A" stroke-width="2" stroke-miterlimit="10" stroke-linecap="round"/>
</g>
<path d="M32.2268 19.2297V21.201" stroke="#020A0A" stroke-width="2" stroke-miterlimit="10" stroke-linecap="round"/>
<path d="M27.3831 19.2297V21.201" stroke="#020A0A" stroke-width="2" stroke-miterlimit="10" stroke-linecap="round"/>
<path d="M32.2164 25.9076V27.8789" stroke="#020A0A" stroke-width="2" stroke-miterlimit="10" stroke-linecap="round"/>
<path d="M27.3727 25.9076V27.8789" stroke="#020A0A" stroke-width="2" stroke-miterlimit="10" stroke-linecap="round"/>
<mask id="mask2_205_76516" style="mask-type:luminance" maskUnits="userSpaceOnUse" x="0" y="0" width="40" height="40">
<path d="M39 39V1H1V39H39Z" fill="white" stroke="white" stroke-width="2"/>
</mask>
<g mask="url(#mask2_205_76516)">
<path d="M32.2217 33.0258V38.8281" stroke="#020A0A" stroke-width="2" stroke-miterlimit="10" stroke-linecap="round"/>
<path d="M27.3779 33.0258V38.8281" stroke="#020A0A" stroke-width="2" stroke-miterlimit="10" stroke-linecap="round"/>
<path d="M12.5469 32.532V38.3343" stroke="#020A0A" stroke-width="2" stroke-miterlimit="10" stroke-linecap="round"/>
<path d="M7.70312 32.532V38.3343" stroke="#020A0A" stroke-width="2" stroke-miterlimit="10" stroke-linecap="round"/>
<path d="M17.3906 32.532V38.3343" stroke="#020A0A" stroke-width="2" stroke-miterlimit="10" stroke-linecap="round"/>
</g>
</g>
<defs>
<clipPath id="clip0_205_76516">
<rect width="40" height="40" fill="white"/>
</clipPath>
</defs>
</svg>

<svg xmlns="http://www.w3.org/2000/svg" width="40" height="40" fill="none"><g clip-path="url(#a)"><mask id="b" width="40" height="40" x="0" y="0" maskUnits="userSpaceOnUse" style="mask-type:luminance"><path fill="#fff" stroke="#fff" stroke-width="2" d="M39 39V1H1v38z"/></mask><g stroke="#020A0A" stroke-linecap="round" stroke-miterlimit="10" stroke-width="2" mask="url(#b)"><path d="M1.157 38.828h37.657M22.333 1.172H2.802v37.656h19.531zM1.157 1.172h22.8"/></g><path stroke="#020A0A" stroke-linecap="round" stroke-miterlimit="10" stroke-width="2" d="M12.568 5.92v1.972M7.724 5.92v1.972M17.411 5.92v1.972M12.557 12.599v1.971M7.714 12.599v1.971M17.401 12.599v1.971M12.557 19.23V21.2M7.714 19.23V21.2M17.401 19.23V21.2M12.547 25.908v1.97M7.703 25.908v1.97M17.39 25.908v1.97"/><mask id="c" width="40" height="40" x="0" y="0" maskUnits="userSpaceOnUse" style="mask-type:luminance"><path fill="#fff" stroke="#fff" stroke-width="2" d="M39 39V1H1v38z"/></mask><g stroke="#020A0A" stroke-linecap="round" stroke-miterlimit="10" stroke-width="2" mask="url(#c)"><path d="M37.266 14.57H22.333v24.258h14.933zM22.333 14.516h16.48"/></g><path stroke="#020A0A" stroke-linecap="round" stroke-miterlimit="10" stroke-width="2" d="M32.227 19.23V21.2M27.383 19.23V21.2M32.216 25.908v1.97M27.373 25.908v1.97"/><mask id="d" width="40" height="40" x="0" y="0" maskUnits="userSpaceOnUse" style="mask-type:luminance"><path fill="#fff" stroke="#fff" stroke-width="2" d="M39 39V1H1v38z"/></mask><g stroke="#020A0A" stroke-linecap="round" stroke-miterlimit="10" stroke-width="2" mask="url(#d)"><path d="M32.222 33.026v5.802M27.378 33.026v5.802M12.547 32.532v5.802M7.703 32.532v5.802M17.39 32.532v5.802"/></g></g><defs><clipPath id="a"><path fill="#fff" d="M0 0h40v40H0z"/></clipPath></defs></svg>
